X:1
T:Title
%%score { ( 1 3 ) | 2 }
L:1/8
M:6/8
K:Bb
V:1 treble nm="Grand Piano"
V:3 treble 
V:2 bass 
V:1
 z3 z2[Q:1/4=81] [DF]/[DF]/ | [DF]>[DF][DF] [_DB][DA][DG] | [DF][DG][DF] D2 D/D/ | E>DE AEG | %4
 [DF]3- [DF]2 [DF]/[DF]/ | [Fd]>[Fd][Fd] [Fd][Ec][DB] | cBG [GB]2 [FA]/G/ | FBd cFc | [DB]6 | %9
 .[Fd]6 | F[Ae]>[Ae] .[Ae]3 | .[Ec]6 | [DF][Fd]>[Fd] [Fd]2 [DF]/[DF]/ | %13
 .[Dd].[Dd].[Dd] .[Dd]2 [DF]/[DF]/ | .[Ee].[Ee].[Ee] .[Ee]2 [Fd]/[Fe]/ | %15
[M:13/16] [Ff][Gd][Ge][Fd][FBd]3/2[EAc] |[M:5/8] [DFB]-[DFB]- [DFB]3 |] %17
V:2
 z3 z2 [B,,B,]/[B,,B,]/ | [B,,F,]>[B,,F,][B,,F,] [B,,=E,][B,,E,][B,,E,] | %2
 [B,,F,][B,,B,][B,,B,] [B,,F,B,]2 [B,,F,B,]/[B,,F,B,]/ | %3
 [F,A,C]>[F,_A,=B,][F,=A,C] [F,CE][F,A,C][F,A,E] | [B,,B,]3- [B,,B,]2 [B,,B,]/[B,,B,]/ | %5
 [B,,B,]>[B,,B,][B,,B,] [B,,B,][B,,F,][B,,F,] | [E,G,E][E,G,E][E,B,E] [E,E]2 [E,B,]/[E,B,E]/ | %7
 [F,B,D][F,B,D][F,B,F] [F,A,E][F,A,E][F,A,E] | [B,,F,B,]6 | [B,,B,]>D,F, z [B,D][B,D] | %10
 [A,CE][F,C]>[F,C] .[F,C]3 | [F,,A,]>A,,C, F,[F,A,E][F,A,E] | %12
 [B,,B,][B,,B,]>[B,,B,] [B,,B,]2 [B,,B,]/[B,,B,]/ | %13
 .[B,,F,].[B,,^F,].[B,,G,] .[B,,B,]2 [B,,B,]/[B,,B,]/ | %14
 .[F,A,].[A,C].[G,B,] .[F,A,]2 [F,B,]/[E,B,]/ |[M:13/16] [D,B,][G,B,][E,B,][F,B,]F,3/2F, | %16
[M:5/8] B,,-B,,- B,,3 |] %17
V:3
 x6 | x6 | x6 | x6 | x6 | x6 | x6 | x6 | x6 | z z/ B,/B, B,FG | x6 | z z/ A,/A, A,FG | x6 | x6 | %14
 x6 |[M:13/16] x13/2 |[M:5/8] x5 |] %17

